public/images/case-studies/speakinc/feature-icon2.svg

<svg width="72" height="72" viewBox="0 0 72 72" fill="none" xmlns="http://www.w3.org/2000/svg">
<path d="M21.375 34.3125V66.9375C21.375 67.8326 21.7306 68.691 22.3635 69.324C22.9964 69.9569 23.8549 70.3125 24.75 70.3125H67.5C68.3951 70.3125 69.2535 69.9569 69.8865 69.324C70.5194 68.691 70.875 67.8326 70.875 66.9375V34.3125H21.375ZM45 61.3125C45 62.2076 44.6444 63.066 44.0115 63.699C43.3785 64.3319 42.5201 64.6875 41.625 64.6875H31.5C30.6049 64.6875 29.7464 64.3319 29.1135 63.699C28.4806 63.066 28.125 62.2076 28.125 61.3125V59.0625C28.125 58.1674 28.4806 57.309 29.1135 56.676C29.7464 56.0431 30.6049 55.6875 31.5 55.6875H41.625C42.5201 55.6875 43.3785 56.0431 44.0115 56.676C44.6444 57.309 45 58.1674 45 59.0625V61.3125ZM45 50.0625C45 50.9576 44.6444 51.816 44.0115 52.449C43.3785 53.0819 42.5201 53.4375 41.625 53.4375H31.5C30.6049 53.4375 29.7464 53.0819 29.1135 52.449C28.4806 51.816 28.125 50.9576 28.125 50.0625V44.4375C28.125 43.5424 28.4806 42.684 29.1135 42.051C29.7464 41.4181 30.6049 41.0625 31.5 41.0625H41.625C42.5201 41.0625 43.3785 41.4181 44.0115 42.051C44.6444 42.684 45 43.5424 45 44.4375V50.0625ZM64.125 61.3125C64.125 62.2076 63.7694 63.066 63.1365 63.699C62.5035 64.3319 61.6451 64.6875 60.75 64.6875H50.625C49.7299 64.6875 48.8715 64.3319 48.2385 63.699C47.6056 63.066 47.25 62.2076 47.25 61.3125V44.4375C47.25 43.5424 47.6056 42.684 48.2385 42.051C48.8715 41.4181 49.7299 41.0625 50.625 41.0625H60.75C61.6451 41.0625 62.5035 41.4181 63.1365 42.051C63.7694 42.684 64.125 43.5424 64.125 44.4375V61.3125Z" fill="#EAEAEA"/>
<path d="M70.875 32.0625V24.1875C70.875 23.2924 70.5194 22.4339 69.8865 21.801C69.2535 21.1681 68.3951 20.8125 67.5 20.8125H24.75C23.8549 20.8125 22.9964 21.1681 22.3635 21.801C21.7306 22.4339 21.375 23.2924 21.375 24.1875V32.0625H70.875ZM41.625 25.3125H43.875C44.1734 25.3125 44.4595 25.431 44.6705 25.642C44.8815 25.853 45 26.1391 45 26.4375C45 26.7359 44.8815 27.022 44.6705 27.233C44.4595 27.444 44.1734 27.5625 43.875 27.5625H41.625C41.3266 27.5625 41.0405 27.444 40.8295 27.233C40.6185 27.022 40.5 26.7359 40.5 26.4375C40.5 26.1391 40.6185 25.853 40.8295 25.642C41.0405 25.431 41.3266 25.3125 41.625 25.3125ZM34.875 25.3125H37.125C37.4234 25.3125 37.7095 25.431 37.9205 25.642C38.1315 25.853 38.25 26.1391 38.25 26.4375C38.25 26.7359 38.1315 27.022 37.9205 27.233C37.7095 27.444 37.4234 27.5625 37.125 27.5625H34.875C34.5766 27.5625 34.2905 27.444 34.0795 27.233C33.8685 27.022 33.75 26.7359 33.75 26.4375C33.75 26.1391 33.8685 25.853 34.0795 25.642C34.2905 25.431 34.5766 25.3125 34.875 25.3125ZM28.125 25.3125H30.375C30.6734 25.3125 30.9595 25.431 31.1705 25.642C31.3815 25.853 31.5 26.1391 31.5 26.4375C31.5 26.7359 31.3815 27.022 31.1705 27.233C30.9595 27.444 30.6734 27.5625 30.375 27.5625H28.125C27.8266 27.5625 27.5405 27.444 27.3295 27.233C27.1185 27.022 27 26.7359 27 26.4375C27 26.1391 27.1185 25.853 27.3295 25.642C27.5405 25.431 27.8266 25.3125 28.125 25.3125Z" fill="#EAEAEA"/>
<path d="M53.3485 13.7666L30.3748 2.27926C29.5934 1.89028 28.7323 1.68784 27.8593 1.68784C26.9864 1.68784 26.1253 1.89028 25.3438 2.27926L2.3691 13.7666C1.99527 13.9535 1.68087 14.2407 1.46113 14.5962C1.24139 14.9517 1.125 15.3613 1.125 15.7793C1.125 16.1972 1.24139 16.6068 1.46113 16.9623C1.68087 17.3178 1.99527 17.6051 2.3691 17.7919L8.46885 20.8418L2.3691 23.8916C1.99527 24.0785 1.68087 24.3657 1.46113 24.7212C1.24139 25.0767 1.125 25.4863 1.125 25.9043C1.125 26.3222 1.24139 26.7318 1.46113 27.0873C1.68087 27.4428 1.99527 27.7301 2.3691 27.9169L8.46885 30.9668L2.3691 34.0166C1.99527 34.2035 1.68087 34.4907 1.46113 34.8462C1.24139 35.2017 1.125 35.6113 1.125 36.0293C1.125 36.4472 1.24139 36.8568 1.46113 37.2123C1.68087 37.5678 1.99527 37.855 2.3691 38.0419L25.3427 49.5293C26.1243 49.918 26.9853 50.1203 27.8582 50.1203C28.7311 50.1203 29.5922 49.918 30.3737 49.5293L53.3473 38.0419C53.7212 37.855 54.0356 37.5678 54.2553 37.2123C54.4751 36.8568 54.5914 36.4472 54.5914 36.0293C54.5914 35.6113 54.4751 35.2017 54.2553 34.8462C54.0356 34.4907 53.7212 34.2035 53.3473 34.0166L47.2498 30.9668L53.3485 27.9169C53.7223 27.7301 54.0367 27.4428 54.2564 27.0873C54.4762 26.7318 54.5926 26.3222 54.5926 25.9043C54.5926 25.4863 54.4762 25.0767 54.2564 24.7212C54.0367 24.3657 53.7223 24.0785 53.3485 23.8916L47.2498 20.8418L53.3485 17.7919C53.7223 17.6051 54.0367 17.3178 54.2564 16.9623C54.4762 16.6068 54.5926 16.1972 54.5926 15.7793C54.5926 15.3613 54.4762 14.9517 54.2564 14.5962C54.0367 14.2407 53.7223 13.9535 53.3485 13.7666ZM52.3427 36.0293L29.368 47.5166C28.8988 47.7497 28.3821 47.871 27.8582 47.871C27.3344 47.871 26.8176 47.7497 26.3485 47.5166L3.37485 36.0293L10.9843 32.2245L25.3438 39.4043C26.1254 39.793 26.9864 39.9953 27.8593 39.9953C28.7323 39.9953 29.5933 39.793 30.3748 39.4043L44.7343 32.2245L52.3427 36.0293ZM52.3427 25.9043L29.368 37.3916C28.8988 37.6247 28.3821 37.746 27.8582 37.746C27.3344 37.746 26.8176 37.6247 26.3485 37.3916L3.37485 25.9043L10.9843 22.0995L25.3438 29.2793C26.1254 29.668 26.9864 29.8703 27.8593 29.8703C28.7323 29.8703 29.5933 29.668 30.3748 29.2793L44.7343 22.0995L52.3427 25.9043ZM29.368 27.2666C28.899 27.5002 28.3822 27.6218 27.8582 27.6218C27.3343 27.6218 26.8175 27.5002 26.3485 27.2666L3.37485 15.7793L26.3485 4.29189C26.8175 4.05854 27.3343 3.9371 27.8582 3.9371C28.3821 3.9371 28.8989 4.05854 29.368 4.29189L52.3427 15.7793L29.368 27.2666Z" fill="#FF6B00"/>
<path d="M25.8456 9.57375L17.4621 13.7666C17.0883 13.9535 16.7739 14.2407 16.5542 14.5962C16.3344 14.9517 16.218 15.3613 16.218 15.7792C16.218 16.1972 16.3344 16.6068 16.5542 16.9623C16.7739 17.3178 17.0883 17.605 17.4621 17.7919L25.8467 21.9847C26.4722 22.2953 27.1611 22.4569 27.8594 22.4569C28.5577 22.4569 29.2465 22.2953 29.872 21.9847L38.2499 17.7919C38.6237 17.605 38.9381 17.3178 39.1578 16.9623C39.3776 16.6068 39.494 16.1972 39.494 15.7792C39.494 15.3613 39.3776 14.9517 39.1578 14.5962C38.9381 14.2407 38.6237 13.9535 38.2499 13.7666L29.8709 9.57375C29.2455 9.26296 28.5566 9.10123 27.8583 9.10123C27.1599 9.10123 26.471 9.26296 25.8456 9.57375ZM37.2498 15.7792L28.8651 19.971C28.5528 20.1277 28.2082 20.2094 27.8588 20.2094C27.5094 20.2094 27.1648 20.1277 26.8525 19.971L18.46 15.7837H18.4656L26.8525 11.5875C27.1649 11.4313 27.5095 11.3499 27.8588 11.3499C28.2081 11.3499 28.5527 11.4313 28.8651 11.5875L37.2498 15.7792Z" fill="#FF6B00"/>
</svg>

<svg xmlns="http://www.w3.org/2000/svg" width="72" height="72" fill="none" xmlns:v="https://vecta.io/nano"><path d="M21.375 34.313v32.625c0 .895.356 1.754.988 2.386s1.491.989 2.387.989H67.5c.895 0 1.754-.356 2.386-.989a3.38 3.38 0 0 0 .989-2.386V34.313h-49.5zm23.625 27c0 .895-.356 1.754-.989 2.386a3.38 3.38 0 0 1-2.386.989H31.5c-.895 0-1.754-.356-2.387-.989s-.988-1.491-.988-2.386v-2.25c0-.895.356-1.754.988-2.386s1.491-.989 2.387-.989h10.125c.895 0 1.754.356 2.386.989s.989 1.49.989 2.386v2.25zm0-11.25c0 .895-.356 1.754-.989 2.386a3.38 3.38 0 0 1-2.386.989H31.5c-.895 0-1.754-.356-2.387-.989s-.988-1.491-.988-2.386v-5.625c0-.895.356-1.754.988-2.386s1.491-.989 2.387-.989h10.125c.895 0 1.754.356 2.386.989s.989 1.49.989 2.386v5.625zm19.125 11.25c0 .895-.356 1.754-.989 2.386a3.38 3.38 0 0 1-2.386.989H50.625c-.895 0-1.754-.356-2.386-.989a3.38 3.38 0 0 1-.989-2.386V44.438c0-.895.356-1.754.989-2.386a3.38 3.38 0 0 1 2.386-.989H60.75c.895 0 1.754.356 2.386.989a3.38 3.38 0 0 1 .989 2.386v16.875zm6.75-29.25v-7.875c0-.895-.356-1.754-.989-2.387s-1.491-.988-2.386-.988H24.75a3.38 3.38 0 0 0-2.387.988 3.37 3.37 0 0 0-.988 2.387v7.875h49.5zm-29.25-6.75h2.25a1.13 1.13 0 0 1 .795.329c.211.21.33.497.33.796s-.118.584-.33.796a1.12 1.12 0 0 1-.795.329h-2.25a1.13 1.13 0 0 1-.795-.329c-.211-.21-.33-.497-.33-.796s.118-.584.33-.796a1.12 1.12 0 0 1 .795-.329zm-6.75 0h2.25a1.13 1.13 0 0 1 .795.329c.211.21.33.497.33.796s-.118.584-.33.796a1.12 1.12 0 0 1-.795.329h-2.25a1.13 1.13 0 0 1-.795-.329c-.211-.21-.33-.497-.33-.796s.118-.584.33-.796a1.12 1.12 0 0 1 .795-.329zm-6.75 0h2.25a1.13 1.13 0 0 1 .796.329 1.12 1.12 0 0 1 .329.796 1.13 1.13 0 0 1-.329.796 1.12 1.12 0 0 1-.796.329h-2.25a1.13 1.13 0 0 1-.796-.329 1.12 1.12 0 0 1-.329-.796 1.13 1.13 0 0 1 .329-.796 1.12 1.12 0 0 1 .796-.329z" fill="#eaeaea"/><path d="M53.349 13.767L30.375 2.279c-.781-.389-1.643-.591-2.515-.591s-1.734.202-2.515.591L2.369 13.767a2.25 2.25 0 0 0 0 4.026l6.1 3.05-6.1 3.05a2.25 2.25 0 0 0 0 4.026l6.1 3.05-6.1 3.05a2.25 2.25 0 0 0 0 4.026l22.974 11.487a5.65 5.65 0 0 0 5.031 0l22.974-11.487a2.25 2.25 0 0 0 0-4.026l-6.097-3.05 6.099-3.05a2.25 2.25 0 0 0 0-4.026l-6.099-3.05 6.099-3.05a2.25 2.25 0 0 0 0-4.026zM52.343 36.03L29.368 47.517c-.469.233-.986.354-1.51.354s-1.041-.121-1.51-.354L3.375 36.029l7.609-3.805 14.36 7.18a5.65 5.65 0 0 0 5.031 0l14.359-7.18 7.608 3.805zm0-10.125L29.368 37.392c-.469.233-.986.354-1.51.354s-1.041-.121-1.51-.354L3.375 25.904l7.609-3.805 14.36 7.18a5.65 5.65 0 0 0 5.031 0l14.359-7.18 7.608 3.805zm-22.975 1.362a3.38 3.38 0 0 1-1.51.355c-.524 0-1.041-.122-1.51-.355L3.375 15.779 26.349 4.292a3.39 3.39 0 0 1 3.019 0l22.975 11.487-22.975 11.487zM25.846 9.574l-8.384 4.193a2.25 2.25 0 0 0 0 4.026l8.385 4.193a4.52 4.52 0 0 0 2.013.472c.699 0 1.387-.162 2.013-.472l8.378-4.193a2.25 2.25 0 0 0 0-4.026l-8.379-4.193a4.52 4.52 0 0 0-4.026 0zm11.404 6.205l-8.385 4.192a2.24 2.24 0 0 1-1.006.238 2.25 2.25 0 0 1-1.006-.238l-8.392-4.187h.006l8.387-4.196a2.25 2.25 0 0 1 2.013 0l8.385 4.192z" fill="#ff6b00"/></svg>
